pix_core/f/impress.svg

<svg fill="none" preserveAspectRatio="xMinYMid meet" viewBox="0 0 24 24" xmlns="http://www.w3.org/2000/svg"><g fill="#fff"><path d="m14.5 13c0-.2761-.2239-.5-.5-.5s-.5.2239-.5.5v3c0 .2761.2239.5.5.5s.5-.2239.5-.5z"/><path d="m12 13.5c.2761 0 .5.2239.5.5v2c0 .2761-.2239.5-.5.5s-.5-.2239-.5-.5v-2c0-.2761.2239-.5.5-.5z"/><path d="m10.5 15c0-.2761-.2239-.5-.5-.5-.27614 0-.5.2239-.5.5v1c0 .2761.22386.5.5.5.2761 0 .5-.2239.5-.5z"/><g clip-rule="evenodd" fill-rule="evenodd"><path d="m7.5 17v-5.5h-.5c-.27614 0-.5-.2239-.5-.5s.22386-.5.5-.5h10c.2761 0 .5.2239.5.5s-.2239.5-.5.5h-.5v5.5c0 .8284-.6716 1.5-1.5 1.5h-2.5v.5c0 .2761-.2239.5-.5.5s-.5-.2239-.5-.5v-.5h-2.5c-.82843 0-1.5-.6716-1.5-1.5zm8 0c0 .2761-.2239.5-.5.5h-6c-.27614 0-.5-.2239-.5-.5v-5.5h7z"/><path d="m19.5 19c0 1.3807-1.1193 2.5-2.5 2.5h-10c-1.38071 0-2.5-1.1193-2.5-2.5v-14c0-1.38071 1.11929-2.5 2.5-2.5h6.1716c.663 0 1.2989.26339 1.7677.73223l3.8285 3.82843c.4688.46884.7322 1.10473.7322 1.76777zm-14-14c0-.82843.67157-1.5 1.5-1.5h6c.2761 0 .5.22386.5.5v3c0 .82843.6716 1.5 1.5 1.5h3c.2761 0 .5.22386.5.5v10c0 .8284-.6716 1.5-1.5 1.5h-10c-.82843 0-1.5-.6716-1.5-1.5zm9-.79289 3.2929 3.29289h-2.7929c-.2761 0-.5-.22386-.5-.5z"/></g></g></svg>

<svg viewBox="0 0 24 24" fill="none" xmlns="http://www.w3.org/2000/svg" preserveAspectRatio="xMinYMid meet">
<path  d="M14.5 13C14.5 12.7239 14.2761 12.5 14 12.5C13.7239 12.5 13.5 12.7239 13.5 13V16C13.5 16.2761 13.7239 16.5 14 16.5C14.2761 16.5 14.5 16.2761 14.5 16V13Z" fill="#fff"/>
<path  d="M12 13.5C12.2761 13.5 12.5 13.7239 12.5 14V16C12.5 16.2761 12.2761 16.5 12 16.5C11.7239 16.5 11.5 16.2761 11.5 16V14C11.5 13.7239 11.7239 13.5 12 13.5Z" fill="#fff"/>
<path  d="M10.5 15C10.5 14.7239 10.2761 14.5 10 14.5C9.72386 14.5 9.5 14.7239 9.5 15V16C9.5 16.2761 9.72386 16.5 10 16.5C10.2761 16.5 10.5 16.2761 10.5 16V15Z" fill="#fff"/>
<path fill-rule="evenodd" clip-rule="evenodd" d="M7.5 17V11.5H7C6.72386 11.5 6.5 11.2761 6.5 11C6.5 10.7239 6.72386 10.5 7 10.5H17C17.2761 10.5 17.5 10.7239 17.5 11C17.5 11.2761 17.2761 11.5 17 11.5H16.5V17C16.5 17.8284 15.8284 18.5 15 18.5H12.5V19C12.5 19.2761 12.2761 19.5 12 19.5C11.7239 19.5 11.5 19.2761 11.5 19V18.5H9C8.17157 18.5 7.5 17.8284 7.5 17ZM15.5 17C15.5 17.2761 15.2761 17.5 15 17.5H9C8.72386 17.5 8.5 17.2761 8.5 17V11.5H15.5V17Z" fill="#fff"/>
<path fill-rule="evenodd" clip-rule="evenodd" d="M19.5 19C19.5 20.3807 18.3807 21.5 17 21.5H7C5.61929 21.5 4.5 20.3807 4.5 19V5C4.5 3.61929 5.61929 2.5 7 2.5H13.1716C13.8346 2.5 14.4705 2.76339 14.9393 3.23223L18.7678 7.06066C19.2366 7.5295 19.5 8.16539 19.5 8.82843V19ZM5.5 5C5.5 4.17157 6.17157 3.5 7 3.5H13C13.2761 3.5 13.5 3.72386 13.5 4V7C13.5 7.82843 14.1716 8.5 15 8.5H18C18.2761 8.5 18.5 8.72386 18.5 9V19C18.5 19.8284 17.8284 20.5 17 20.5H7C6.17157 20.5 5.5 19.8284 5.5 19V5ZM14.5 4.20711L17.7929 7.5H15C14.7239 7.5 14.5 7.27614 14.5 7V4.20711Z" fill="#fff"/>
</svg>
